X: 34437
T: Rickett's
R: hornpipe
M: 4/4
K: Dmajor
fe|:(3ded AF DFAf|(3efe (3dcB A2 ~g2|fgaf bagf|(3efe (3dcB Agfe|
dedA FAdf|(3gfe (3dcB Aceg|fgaf bgec|1 dz d4 fe:|2 dz d4 fg||
|:(3agf af dfaf|(3bag bg e2 fg|(3agf af bagf|(3efe (3dcB A2 fe|
(3ded AF DFAf|(3efe (3dcB Aceg|fgaf bgec|1 dz d4 fg:|2 dz d4 fe||

